X:5880
T:Springleik e. Mats Berglund
M:3/4
N:Finnskoga. Heavy & late 2 beat, light & short 3
O:Sweden
R:Polska
Z:Carol Turner
%%TUNEURL: http://www.leeds.ac.uk/music/Info/RRTuneBk/gettune/00000c83.html
%%ID:00000c83
K:A min
f2 f>e d2 | (3efe (3ded c2 | cB A>A AB | ^cA/c/ (3BBB A2 |\
f2 f>e d2 | (3efe (3ded c2 | c>B A>A AB^c | A2 A4 ::
ef ed e^f | ^ga (3bgb a2 | g^f ed ef | (3^geg (3^fff e2 |\
ef ed e^f | ^ga (3bgb a2 | g^f e^d (3efg | e2 e4 :|
